X: 3
T:Star Of Munster
R: reel
M: 4/4
L: 1/8
K: Ador
|: ed | c2 Ac BAGB | AGEF GEDG | EAAG ABcd |e2 afge d2 |
c2 Ac BAGB | AGEF GEDG | EAAB cded |1 cABG A2 :|2 e2 dB A3g||
|:a3b ageg | agbg agef | g3a gede |g2 af gedg |
a3b ageg | agbg agef | g4 a4| b3 a ge d2 :||

